X:1
T:Title
%%score { ( 1 4 ) | ( 2 3 ) }
L:1/8
Q:1/4=100
M:6/8
K:Bb
V:1 treble nm="Grand Piano"
V:4 treble 
V:2 bass 
V:3 bass 
V:1
 D2 F G2 F | D2 [DB] [DF]2 [DF] | [Ec]2 c c=Bc | [Fd]3 [DB]3 | D2 F G2 F | D2 B [DF]2 [DB] | %6
w: J.~Lincoln~Hall * * *||||||
 [FA]2 [Fc] [=EG]2 [Ec] | F6 | E2 [EF] [Fd]2 [Ec] | cBG F2 F | E2 [EF] [Fd]2 [Ec] | %11
w: |||||
[M:5/8] [DB]3 [Fd]2 |[M:1/8] [Fd] |[M:3/4] [Fd][Fd] [Fd] [EG]2 [EG] | [=Ec][Ec] [Ec] F2 ^F | %15
w: ||||
 G2 A d2 c | [DB]6 | [Fd]3 [Fd]3 | .[Ec]2 [G,EG] [EB]3 | [DF]3 [DG]3 | GF D [DF]3 | E2 F d2 c | %22
w: |||||||
 [DB]2 [Fd] [DF]2 [Fd] | [=Ec]2 [CEG] [DEB]2 [CEA] |[M:15/16] F3/2-F3/2- F3- F z/ | %25
w: |||
[M:3/4] [Fd]3 [Fd]3 | .[Ec]2 [G,EG] [EB]3 | [DF]3 [DG]3 | GF D [DF]3 | d2 dd cd | e2 G [Gd]2 [Gc] | %31
w: ||||||
 F2 B G2 A | [DB]6 |] %33
w: ||
V:2
 z2 [F,D] [B,D]2 [F,D] | z2 F, B,2 F, | F,,2 [F,A,E] ED[F,A,E] | z2 F, B,2 F, | %4
 z2 [F,D] [B,D]2 [F,D] | z2 [F,D] [B,,B,]2 [B,,F,] | [C,A,]2 [C,A,] [C,B,]2 [C,B,] | [F,A,]6 | %8
 F,,2 F, A,2 F, | B,,2 [G,E] [B,D]2 [F,D] | F,,2 F, A,2 F, |[M:5/8] B,,2 F, B,2 |[M:1/8] [B,,B,] | %13
[M:3/4] [B,,B,][B,,B,] [B,,B,] [E,B,]2 [E,G,] | [C,G,][C,G,] [C,G,] [F,A,E]2 [F,A,E] | %15
 [F,A,E]2 [F,A,E] [F,B,F]2 [F,A,E] | [B,,B,]6 | [B,,B,]3 [B,,B,]3 | %18
 z[K:treble] B[K:bass] B,, [B,,G,]3 | [B,,B,]3 [B,,B,]3 | [B,,B,]2 [B,,B,] [B,,B,]3 | %21
 [F,A,]2 [F,A,E] [F,B,F]2 [F,A,E] | [B,,B,]2 [B,,B,] [B,,B,]2 [B,,B,] | [C,G,]2 C, C,2 C, | %24
[M:15/16] z3 e3/2- e3 |[M:3/4] [B,,B,]3 [B,,B,]3 | z[K:treble] B[K:bass] B,, [B,,G,]3 | %27
 [B,,B,]3 [B,,B,]3 | [B,,B,]2 [B,,B,] [B,,B,]3 | [_A,B,F]2 [A,B,F] [A,B,F]2 [A,B,F] | %30
 [G,B,E]2[K:bass] [E,B,E] [E,E]2 [E,E] | [F,D]2 [F,DF] [F,_D=E]2 [F,C_E] | [B,,B,]6 |] %33
V:3
 B,,6 | B,,6 | z3 .[F,A,]3 | B,,6 | B,,6 | B,,3 z3 | x6 | x6 | x6 | x6 | x6 |[M:5/8] x5 | %12
[M:1/8] x |[M:3/4] x6 | x6 | x6 | x6 | x6 | [B,,G,]2[K:treble][K:bass] z2 z2 | x6 | x6 | x6 | x6 | %23
 x6 |[M:15/16] F,3/2-F,3/2-F,3/2- F,3 |[M:3/4] x6 | [B,,G,]2[K:treble][K:bass] z2 z2 | x6 | x6 | %29
 x6 | x2[K:bass] x4 | x6 | x6 |] %33
V:4
 x6 | x6 | x6 | x6 | x6 | x6 | x6 | z2 =E _E3 | x6 | .D3 z3 | x6 |[M:5/8] x5 |[M:1/8] x | %13
[M:3/4] x6 | x6 | x6 | x6 | x6 | x6 | x6 | D2 z2 z2 | x6 | x6 | x6 | %24
[M:15/16] A,3/2-A,3/2-A,3/2- A,3 |[M:3/4] x6 | x6 | x6 | D2 z2 z2 | x6 | x6 | x6 | x6 |] %33

